X:31
T:Old Joe's Jig
M:6/8
L:1/8
K:AMix
f2 A AFA|BAF A2 A|BdB AFA|Bcd efg|\
fAA AFA|BAF A2 A|(B/c/d)B AFA|Bdc d2 e :|
fgf efe|dBA d2 (e|f)aa afe|faa b2 a|\
fff efe|dBA d2 e|fAA AFA|Bdc d2 e|
faf efe|dBA d2 e|faa afe|fga b2 a|\
fAA eAA|dBA d2 e|fAA AFA|Bdc d2 e |>|
